public/mascots/dropout/bear-donda-32x32.svg

<svg xmlns="http://www.w3.org/2000/svg" width="32" height="32" viewBox="0 0 32 32"><defs><linearGradient id="a" x1="0%" x2="100%" y1="0%" y2="100%"><stop offset="0%" style="stop-color:#8b4513"/><stop offset="100%" style="stop-color:#654321"/></linearGradient></defs><circle cx="10" cy="8" r="4" fill="url(#a)"/><circle cx="22" cy="8" r="4" fill="url(#a)"/><ellipse cx="16" cy="12" fill="url(#a)" rx="8" ry="7"/><path fill="#1a1a1a" d="M8 8q8-4 16 0 2 4 0 8-8 4-16 0-2-4 0-8"/><ellipse cx="16" cy="14" fill="#2a2a2a" rx="3" ry="2"/><ellipse cx="16" cy="13" rx="1.5" ry="1"/><circle cx="13" cy="11" r="1.5" fill="#f44"/><circle cx="13.3" cy="11" r=".6" fill="#fff"/><circle cx="19" cy="11" r="1.5" fill="#f44"/><circle cx="18.7" cy="11" r=".6" fill="#fff"/><path fill="#1a1a1a" d="M10 18q0-3 6-4 6 1 6 4 0 8-6 10-6-2-6-10"/><path stroke="#333" stroke-width=".5" d="M16 16v10"/><path fill="#333" d="M14 20h4v2h-4z"/><ellipse cx="9" cy="21" fill="#1a1a1a" rx="2" ry="3"/><ellipse cx="23" cy="21" fill="#1a1a1a" rx="2" ry="3"/></svg>

<svg xmlns="http://www.w3.org/2000/svg" viewBox="0 0 32 32" width="32" height="32">
  <defs>
    <linearGradient id="donBearBrown32" x1="0%" y1="0%" x2="100%" y2="100%">
      <stop offset="0%" style="stop-color:#8B4513"/>
      <stop offset="100%" style="stop-color:#654321"/>
    </linearGradient>
  </defs>
  
  <!-- Ears -->
  <circle cx="10" cy="8" r="4" fill="url(#donBearBrown32)"/>
  <circle cx="22" cy="8" r="4" fill="url(#donBearBrown32)"/>
  
  <!-- Head -->
  <ellipse cx="16" cy="12" rx="8" ry="7" fill="url(#donBearBrown32)"/>
  
  <!-- Full Face Mask -->
  <path d="M8 8 Q16 4 24 8 Q26 12 24 16 Q16 20 8 16 Q6 12 8 8Z" fill="#1a1a1a"/>
  
  <!-- Snout (behind mask hint) -->
  <ellipse cx="16" cy="14" rx="3" ry="2" fill="#2a2a2a"/>
  <ellipse cx="16" cy="13" rx="1.5" ry="1" fill="#000"/>
  
  <!-- Glowing Eyes -->
  <circle cx="13" cy="11" r="1.5" fill="#FF4444"/>
  <circle cx="13.3" cy="11" r="0.6" fill="#FFF"/>
  <circle cx="19" cy="11" r="1.5" fill="#FF4444"/>
  <circle cx="18.7" cy="11" r="0.6" fill="#FFF"/>
  
  <!-- Body/Black Tactical -->
  <path d="M10 18 Q10 15 16 14 Q22 15 22 18 Q22 26 16 28 Q10 26 10 18Z" fill="#1a1a1a"/>
  <line x1="16" y1="16" x2="16" y2="26" stroke="#333" stroke-width="0.5"/>
  <rect x="14" y="20" width="4" height="2" fill="#333"/>
  
  <!-- Arms -->
  <ellipse cx="9" cy="21" rx="2" ry="3" fill="#1a1a1a"/>
  <ellipse cx="23" cy="21" rx="2" ry="3" fill="#1a1a1a"/>
</svg>
